assets/images/contacts/envelope.svg

<svg width="20" height="16" fill="none" xmlns="http://www.w3.org/2000/svg"><path d="M0 0v16h20V0H0zm18.5 1.5v1.73L10 8.14 1.5 3.23V1.5h17zm-17 13V5L10 9.87 18.5 5v9.5h-17z" fill="#0029FF"/></svg>

<svg width="20" height="16" viewBox="0 0 20 16" fill="none" xmlns="http://www.w3.org/2000/svg">
<path d="M0 0V16H20V0H0ZM18.5 1.5V3.23L10 8.14L1.5 3.23V1.5H18.5ZM1.5 14.5V5L10 9.87L18.5 5V14.5H1.5Z" fill="#0029FF"/>
</svg>
